X: 31222
T: Paddy Fahey's
R: reel
M: 4/4
K: Ddorian
|:D2 A,D FEFG|Ad^cA ~d3 e|~f2 df edcA|dcAG FDCE|
D2 A,D FEFG|Ad^cA d3 e|f2af edcA|1 dcAG FDCE:|2 dcAG FDD2||
|:d2ed aded|c2Gc EcGc|d2ed aded|cBcd edcA|
a2^ga ABcA|dcAG FDCE|D2A,D FEFG|Add^c d2d=c:|

